X:1
T:Title
%%score { ( 1 3 ) | ( 2 4 ) }
L:1/8
M:4/4
K:Ab
V:1 treble nm="Grand Piano"
V:3 treble 
V:2 bass 
V:4 bass 
V:1
 z4 z2[Q:1/4=100] [CE]2 | [CA][CA][CG][CF] [DG]2 [DF]2 | E2- [DE]2 E2 E2 | [CA][CA][DG][EA] B2 F2 | %4
[M:3/4] B6 |[M:1/4] B2 |[M:4/4] ccdc B2 c2 | A6 z2 | EAGA B2 G2 |[M:3/4] [A,CA]6 |[M:1/4] [Ec]2 | %11
[M:4/4] [EGc][DGB][DGB][CG=A] [DGB]2 e2 | e6 z2 | AAGA [=DAc]2 [DAB]2 |[M:3/4] [EGB]6 | %15
[M:1/4] [EGB]2 |[M:4/4] [EAc][EAc][FAd][EAc] [DGB]2 [EGc]2 | [CA]2- [C_GA-]2 [FA]2 F2 | %18
 EAGA B2 G2 |[M:3/4] [A,CA]6 |[M:1/4] [Ac]>[Bd] |[M:4/4] [ce]4- [ce]c[Bd]e | %22
 [df]2 [ce]4 [Ac]>[Bd] | [ce]2 c2 cB A>c |[M:3/4] B6 |[M:1/4] [EA]>[EB] | %26
[M:4/4] [Ec]3 [Ec] [Fd]2 [Ec]2 | c2 B4 B>c | d3 d [Ae]2 d2 |[M:3/4] d2 c4 |[M:1/4] c>d | %31
[M:4/4] e2 e2 c3 [_GA] | [Fd]6 [FA]>[FB] | [Ec]2 [CE]2 [DGB]3 [CEA] |[M:3/4] [CEA]6 |] %35
V:2
 z4 z2 [A,,E,]2 | [A,,E,][A,,E,][A,,E,][A,,E,] [B,,E,]2 [G,,E,]2 | %2
 [A,,A,]2 [B,,G,]2 [C,A,]2 [E,G,D]2 | [A,,A,][A,,E,][B,,E,][C,A,] [D,F,D]2 [=D,B,]2 | %4
[M:3/4] [E,G,E]6 |[M:1/4] [E,G,E]2 | %6
[M:4/4][K:treble] [A,E][A,E][A,F][K:bass][A,E] [E,G,D]2 [E,G,E]2 | %7
 [F,A,C]2 [E,C]2 [D,D]2 [D,A,D]2 | [E,A,C][E,CE][E,B,D][E,A,C] [E,G,D]2 [E,B,D]2 |[M:3/4] A,,6 | %10
[M:1/4] A,2 |[M:4/4] E,E,E,E, E,2[K:treble] [B,DG]2 | [A,CA]2 [B,D]2 [CE]2 [A,E]2 | %13
 [F,CF][F,CF][F,B,F][F,CF] B,,2 B,,2 |[M:3/4] E,6 |[M:1/4] E,2 |[M:4/4] A,A,A,A, E,2 E,2 | %17
 F,2 E,2 [D,D]2 [D,A,D]2 | [E,A,C][E,CE][E,B,D][E,A,C] [E,G,D]2 [E,B,D]2 |[M:3/4] A,,6 | %20
[M:1/4] A,>A, |[M:4/4] A,2 A,2 z[K:treble] A z c | A,2 A,4 A,>A, | %23
 A,2 [A,EA]2 [A,EA][B,EG] [CE]>[K:bass][A,E] |[M:3/4] [G,B,E]2 [F,A,]2 [E,G,]2 | %25
[M:1/4] [C,A,]>[B,,G,] |[M:4/4] [A,,A,]3 [A,,A,] [A,,A,]2 [A,,A,]2 | %27
 [E,A,E]2 [E,G,E]4 [E,G,E]>[E,A,E] | [E,B,E]3 [E,B,E] [E,C]2 [E,B,E]2 | %29
[M:3/4][K:treble] [A,B,E]2 [A,E]4 |[M:1/4] [A,E]>[A,B,E] | %31
[M:4/4] [A,CA]2 [A,CA]2 [A,E_G]3[K:bass] [C,A,] | [D,A,]6 [D,A,]>[D,A,] | [E,A,]2 E,2 E,3 A,, | %34
[M:3/4] A,,6 |] %35
V:3
 x8 | x8 | C2 z2 z4 | x8 |[M:3/4] x6 |[M:1/4] x2 |[M:4/4] x8 | z2 _G2 F2 F2 | x8 |[M:3/4] x6 | %10
[M:1/4] x2 |[M:4/4] x8 | z2 G2 A2 c2 | x8 |[M:3/4] x6 |[M:1/4] x2 |[M:4/4] x8 | F2 z2 z4 | x8 | %19
[M:3/4] x6 |[M:1/4] x2 |[M:4/4] x8 | x8 | x8 |[M:3/4] z2 =D2 E2 |[M:1/4] x2 |[M:4/4] x8 | x8 | x8 | %29
[M:3/4] x6 |[M:1/4] x2 |[M:4/4] x8 | x8 | x8 |[M:3/4] x6 |] %35
V:4
 x8 | x8 | x8 | x8 |[M:3/4] x6 |[M:1/4] x2 |[M:4/4][K:treble] x3[K:bass] x5 | x8 | x8 |[M:3/4] x6 | %10
[M:1/4] x2 |[M:4/4] x6[K:treble] x2 | x8 | x8 |[M:3/4] x6 |[M:1/4] x2 |[M:4/4] x8 | x8 | x8 | %19
[M:3/4] x6 |[M:1/4] x2 |[M:4/4] z4 A,2[K:treble] A,2 | x8 | x15/2[K:bass] x/ |[M:3/4] x6 | %25
[M:1/4] x2 |[M:4/4] x8 | x8 | x8 |[M:3/4][K:treble] x6 |[M:1/4] x2 |[M:4/4] x7[K:bass] x | x8 | %33
 x8 |[M:3/4] x6 |] %35

